X:5065
T:The Giving Hand
M:12/8
R:Slide
L:1/8
Q:220
C:Aidan Crossey
K:D
|:dcd f2d e2d f2d|dcd f2d e3 A3|
dcd f2d e2d f2d|1 efe d2c d3 d3:||
2 efe d2c d3 f3|
|:aga f2g e2f d2e|B2e c2e d3 f3|
aga f2g e2f d2e|1 B2e cBc d2e fef:||
2 B2e cBc d3 d3|
